X:1
T:James Gibb editions
T:Miserere mei - Palotta
%%score [ 1 2 3 4 ]
L:1/8
Q:1/4=84
M:4/4
K:F
V:1 treble nm="Soprano"
V:2 treble nm="Alto"
V:3 treble-8 nm="Tenor" snm="."
V:4 bass nm="Bass"
V:1
"^Miserere mei"!p!"^Matteo Palotta\n(1688-1758)""^moderato assai" G8 |!<(! A4!<)!"^," B2 (d2- | %2
w: Miserere|me- i, De\-|
 d2 c4!>(! B2- | B2!>)! A2) !fermata!B4 ||[M:4/4] A16 | (A2 B2 c4- | c2 B4) AG | (^F2 G4 F2) | %8
w: |* * us,|secundum~magnam~miseri-|cor\- * *|* * di- am|tu\- * *|
 !fermata!G8 |] %9
w: am~.|
V:2
!p! D8 |!<(! F4!<)!"^," F4 | (G4 F4 |!>(! _E4)!>)! !fermata!D4 ||[M:4/4] F16 | F6 _E2 | D4 _E4 | %7
w: Miserere|me- i,|De\- *|* us,|secundum~magnam~miseri-|cor- di-|am tu-|
 D8- | !fermata!D8 |] %9
w: am.||
V:3
!p! B8 |!<(! (c2 d2!<)! c2 B2- | BA G2)"^," (A2 GF |!>(! G2 c2)!>)! !fermata!F4 || %4
w: Miserere|me\- * * *|* * i, De\- * *|* * us,|
[M:4/4][K:treble-8] c16 | (d4 c4 | F2) G4 (c2- | c2 B2) A4 | !fermata!G8 |] %9
w: secundum~magnam~miseri-|cor\- *|* di- am|* * tu-|am.|
V:4
!p! G,8 |!<(! F,4-!<)!"^," D,4 | (_E,4 D,4 |!>(! C,4)!>)! !fermata!B,,4 ||[M:4/4] F,16 | D,4 A,,4 | %6
w: Miserere|me- i,|De\- *|* us,|secundum~magnam~miseri-|cor- di-|
 (B,,4 C,4) | D,8 | !fermata!G,,8 |] %9
w: am *|tu-|am.|

